X:41
T:Glen of Aherlow, The
T:Woman I Never Forgot, The
T:Lafferty's
R:reel
C:Sean Ryan (-1985)
D:Four Men and a Dog: Shifting Gravel.
D:Planxty.
D:Kevin Burke & Micheal O'Donnell.
D:Michael McGoldrick: Morning Rory
Z:id:hn-reel-41
M:C|
K:Edor
B2AF BFAF|EDEF EDB,D|B2AF BFAF|DFBA FE~E2|
B2AF BFAF|EDEF EDB,A,|B,E~E2 DEFA|dBAF FE~E2:|
|:eB~B2 egfe|d2fd Adfd|eB~B2 egfe|dBAF FE~E2|
eB~B2 egfe|d2fd Adfd|~B3d efge|dBAF FE~E2:|
<end>
<start>
